humanity-icon-theme/Humanity/apps/16/internet-feed-reader.svg

<?xml version="1.0" encoding="UTF-8" standalone="no"?>
<!-- Created with Inkscape (http://www.inkscape.org/) -->
<svg
   xmlns:dc="http://purl.org/dc/elements/1.1/"
   xmlns:cc="http://creativecommons.org/ns#"
   xmlns:rdf="http://www.w3.org/1999/02/22-rdf-syntax-ns#"
   xmlns:svg="http://www.w3.org/2000/svg"
   xmlns="http://www.w3.org/2000/svg"
   xmlns:xlink="http://www.w3.org/1999/xlink"
   xmlns:sodipodi="http://sodipodi.sourceforge.net/DTD/sodipodi-0.dtd"
   xmlns:inkscape="http://www.inkscape.org/namespaces/inkscape"
   version="1.0"
   width="16"
   height="16"
   id="svg3401"
   sodipodi:version="0.32"
   inkscape:version="0.46"
   sodipodi:docname="internet-feed-reader.svg"
   inkscape:output_extension="org.inkscape.output.svg.inkscape">
  <metadata
     id="metadata35">
    <rdf:RDF>
      <cc:Work
         rdf:about="">
        <dc:format>image/svg+xml</dc:format>
        <dc:type
           rdf:resource="http://purl.org/dc/dcmitype/StillImage" />
      </cc:Work>
    </rdf:RDF>
  </metadata>
  <sodipodi:namedview
     inkscape:window-height="706"
     inkscape:window-width="640"
     inkscape:pageshadow="2"
     inkscape:pageopacity="0.0"
     guidetolerance="10.0"
     gridtolerance="10.0"
     objecttolerance="10.0"
     borderopacity="1.0"
     bordercolor="#666666"
     pagecolor="#ffffff"
     id="base"
     showgrid="false"
     inkscape:zoom="7.78125"
     inkscape:cx="9.1216043"
     inkscape:cy="8"
     inkscape:window-x="452"
     inkscape:window-y="53"
     inkscape:current-layer="svg3401" />
  <defs
     id="defs3403">
    <inkscape:perspective
       sodipodi:type="inkscape:persp3d"
       inkscape:vp_x="0 : 8 : 1"
       inkscape:vp_y="0 : 1000 : 0"
       inkscape:vp_z="16 : 8 : 1"
       inkscape:persp3d-origin="8 : 5.3333333 : 1"
       id="perspective37" />
    <linearGradient
       x1="24"
       y1="44"
       x2="24"
       y2="3.8990016"
       id="linearGradient3377"
       xlink:href="#linearGradient2490-113-765"
       gradientUnits="userSpaceOnUse"
       gradientTransform="matrix(0.3756098,0,0,0.3756098,-1.0146238,-1.0268546)" />
    <radialGradient
       cx="12.011247"
       cy="10.290615"
       r="19.99999"
       fx="12.011247"
       fy="10.290615"
       id="radialGradient3375"
       xlink:href="#linearGradient3839"
       gradientUnits="userSpaceOnUse"
       gradientTransform="matrix(2.2636253e-8,0.77384,-1.1162701,0,17.811431,-5.3313905)" />
    <linearGradient
       id="linearGradient2490-113-765">
      <stop
         id="stop3686"
         style="stop-color:#861318;stop-opacity:1"
         offset="0" />
      <stop
         id="stop3688"
         style="stop-color:#f67e2a;stop-opacity:1"
         offset="1" />
    </linearGradient>
    <linearGradient
       x1="24"
       y1="44"
       x2="24"
       y2="3.8990016"
       id="linearGradient3399"
       xlink:href="#linearGradient2490-113-765"
       gradientUnits="userSpaceOnUse"
       gradientTransform="matrix(0.3906505,0,0,0.3927622,-1.1723579,-1.7494096)" />
    <linearGradient
       id="linearGradient3839">
      <stop
         id="stop3841"
         style="stop-color:#ffed8c;stop-opacity:1"
         offset="0" />
      <stop
         id="stop3843"
         style="stop-color:#fb9858;stop-opacity:1"
         offset="0.26238" />
      <stop
         id="stop3845"
         style="stop-color:#dc572a;stop-opacity:1"
         offset="0.66093999" />
      <stop
         id="stop3847"
         style="stop-color:#9f3110;stop-opacity:1"
         offset="1" />
    </linearGradient>
    <radialGradient
       cx="12.011247"
       cy="10.290615"
       r="19.99999"
       fx="12.011247"
       fy="10.290615"
       id="radialGradient3397"
       xlink:href="#linearGradient3839"
       gradientUnits="userSpaceOnUse"
       gradientTransform="matrix(2.3542686e-8,0.8091777,-1.1609694,0,18.407556,-6.2505136)" />
    <linearGradient
       x1="30.149998"
       y1="5.0700607"
       x2="30.149998"
       y2="44.020058"
       id="linearGradient3385"
       xlink:href="#linearGradient3308-4-6"
       gradientUnits="userSpaceOnUse"
       gradientTransform="matrix(0.3756098,0,0,0.3756098,-1.0146238,-1.0268546)" />
    <linearGradient
       x1="15.799999"
       y1="20.445061"
       x2="15.799999"
       y2="44.10902"
       id="linearGradient3389"
       xlink:href="#linearGradient3308-4-6"
       gradientUnits="userSpaceOnUse"
       gradientTransform="matrix(0.3756098,0,0,0.3756098,-1.0146238,-1.0268546)" />
    <linearGradient
       id="linearGradient3308-4-6">
      <stop
         id="stop3310-1-4"
         style="stop-color:#ffffff;stop-opacity:1"
         offset="0" />
      <stop
         id="stop3312-5-3"
         style="stop-color:#ffffff;stop-opacity:0"
         offset="1" />
    </linearGradient>
    <linearGradient
       x1="9.6499996"
       y1="36.845058"
       x2="9.6499996"
       y2="42.99506"
       id="linearGradient3366"
       xlink:href="#linearGradient3308-4-6"
       gradientUnits="userSpaceOnUse"
       gradientTransform="matrix(0.1746115,0,0,0.1766297,0.5828507,6.9181016)" />
    <linearGradient
       id="linearGradient8265-821-176-38-919-66-249-7-7">
      <stop
         id="stop2687-1-9"
         style="stop-color:#ffffff;stop-opacity:1"
         offset="0" />
      <stop
         id="stop2689-5-4"
         style="stop-color:#ffffff;stop-opacity:0"
         offset="1" />
    </linearGradient>
    <linearGradient
       x1="16.626165"
       y1="15.298182"
       x2="20.054544"
       y2="24.627615"
       id="linearGradient3381"
       xlink:href="#linearGradient8265-821-176-38-919-66-249-7-7"
       gradientUnits="userSpaceOnUse"
       gradientTransform="matrix(0.3687618,0,0,0.3920389,0.4545347,0.5618318)" />
    <radialGradient
       inkscape:collect="always"
       xlink:href="#linearGradient3839"
       id="radialGradient2414"
       gradientUnits="userSpaceOnUse"
       gradientTransform="matrix(2.2636253e-8,0.77384,-1.1162701,0,17.811431,-5.3313905)"
       cx="12.011247"
       cy="10.290615"
       fx="12.011247"
       fy="10.290615"
       r="19.99999" />
    <linearGradient
       inkscape:collect="always"
       xlink:href="#linearGradient2490-113-765"
       id="linearGradient2416"
       gradientUnits="userSpaceOnUse"
       gradientTransform="matrix(0.3756098,0,0,0.3756098,-1.0146238,-1.0268546)"
       x1="24"
       y1="44"
       x2="24"
       y2="3.8990016" />
    <linearGradient
       inkscape:collect="always"
       xlink:href="#linearGradient8265-821-176-38-919-66-249-7-7"
       id="linearGradient2419"
       gradientUnits="userSpaceOnUse"
       gradientTransform="matrix(0.3687618,0,0,0.3920389,0.4545347,0.5618318)"
       x1="16.626165"
       y1="15.298182"
       x2="20.054544"
       y2="24.627615" />
    <linearGradient
       inkscape:collect="always"
       xlink:href="#linearGradient3308-4-6"
       id="linearGradient2422"
       gradientUnits="userSpaceOnUse"
       gradientTransform="matrix(0.1746115,0,0,0.1766297,0.5828507,6.9181016)"
       x1="9.6499996"
       y1="36.845058"
       x2="9.6499996"
       y2="42.99506" />
    <linearGradient
       inkscape:collect="always"
       xlink:href="#linearGradient3308-4-6"
       id="linearGradient2425"
       gradientUnits="userSpaceOnUse"
       gradientTransform="matrix(0.3756098,0,0,0.3756098,-0.9587773,-1.0547778)"
       x1="15.799999"
       y1="20.445061"
       x2="15.799999"
       y2="44.10902" />
    <linearGradient
       inkscape:collect="always"
       xlink:href="#linearGradient3308-4-6"
       id="linearGradient2428"
       gradientUnits="userSpaceOnUse"
       gradientTransform="matrix(0.3756098,0,0,0.3756098,-1.0146238,-1.0268546)"
       x1="30.149998"
       y1="5.0700607"
       x2="30.149998"
       y2="44.020058" />
    <radialGradient
       inkscape:collect="always"
       xlink:href="#linearGradient3839"
       id="radialGradient2431"
       gradientUnits="userSpaceOnUse"
       gradientTransform="matrix(2.3542686e-8,0.8091777,-1.1609694,0,18.407556,-6.2505136)"
       cx="12.011247"
       cy="10.290615"
       fx="12.011247"
       fy="10.290615"
       r="19.99999" />
    <linearGradient
       inkscape:collect="always"
       xlink:href="#linearGradient2490-113-765"
       id="linearGradient2433"
       gradientUnits="userSpaceOnUse"
       gradientTransform="matrix(0.3906505,0,0,0.3927622,-1.1723579,-1.7494096)"
       x1="24"
       y1="44"
       x2="24"
       y2="3.8990016" />
    <radialGradient
       inkscape:collect="always"
       xlink:href="#linearGradient3839"
       id="radialGradient2436"
       gradientUnits="userSpaceOnUse"
       gradientTransform="matrix(2.2636253e-8,0.77384,-1.1162701,0,17.811431,-5.3313905)"
       cx="12.011247"
       cy="10.290615"
       fx="12.011247"
       fy="10.290615"
       r="19.99999" />
    <linearGradient
       inkscape:collect="always"
       xlink:href="#linearGradient2490-113-765"
       id="linearGradient2438"
       gradientUnits="userSpaceOnUse"
       gradientTransform="matrix(0.3756098,0,0,0.3756098,-1.0146238,-1.0268546)"
       x1="24"
       y1="44"
       x2="24"
       y2="3.8990016" />
    <radialGradient
       inkscape:collect="always"
       xlink:href="#linearGradient3839"
       id="radialGradient2441"
       gradientUnits="userSpaceOnUse"
       gradientTransform="matrix(2.2636253e-8,0.77384,-1.1162701,0,17.811431,-5.3313905)"
       cx="12.011247"
       cy="10.290615"
       fx="12.011247"
       fy="10.290615"
       r="19.99999" />
    <linearGradient
       inkscape:collect="always"
       xlink:href="#linearGradient2490-113-765"
       id="linearGradient2443"
       gradientUnits="userSpaceOnUse"
       gradientTransform="matrix(0.3756098,0,0,0.3756098,-1.0146238,-1.0268546)"
       x1="24"
       y1="44"
       x2="24"
       y2="3.8990016" />
    <linearGradient
       inkscape:collect="always"
       xlink:href="#linearGradient2490-113-765"
       id="linearGradient2450"
       gradientUnits="userSpaceOnUse"
       gradientTransform="matrix(0.3756098,0,0,0.3756098,-1.0146238,-1.0268546)"
       x1="24"
       y1="56.763191"
       x2="24"
       y2="3.8990016" />
  </defs>
  <path
     id="path3395"
     style="font-size:13.58991336999999966px;font-style:normal;font-variant:normal;font-weight:bold;font-stretch:normal;text-align:start;line-height:125%;writing-mode:lr-tb;text-anchor:start;fill:url(#radialGradient2441);fill-opacity:1;fill-rule:nonzero;stroke:url(#linearGradient2450);stroke-width:0.97560972000000001;stroke-linecap:round;stroke-linejoin:round;marker:none;marker-start:none;marker-mid:none;marker-end:none;stroke-miterlimit:4;stroke-dasharray:none;stroke-dashoffset:0;stroke-opacity:1;visibility:visible;display:inline;overflow:visible;enable-background:accumulate;font-family:Bitstream Vera Serif"
     d="M 0.4878151,0.48781494 L 0.4878151,3.1299818 C 7.2596616,3.2561703 12.729934,8.7338349 12.854406,15.512206 L 15.512206,15.512206 C 15.386553,7.2670614 8.7252258,0.61331816 0.4878151,0.48781494 zM 0.4878151,6.5694881 L 0.4878151,8.9458743 C 4.0621701,9.0702471 6.9296332,11.934763 7.0541459,15.512206 L 9.4305318,15.512206 C 9.3050158,10.615683 5.3798206,6.6948561 0.4878151,6.5694881 zM 2.0162604,12.487825 C 1.5803152,12.487838 1.2450265,12.641722 0.94308918,12.94557 C 0.6407442,13.244424 0.48780498,13.569489 0.48780488,14.008194 C 0.48780488,14.440045 0.64180889,14.773042 0.94308918,15.070817 C 1.2434663,15.367721 1.5769743,15.512227 2.0162604,15.512215 C 2.4419227,15.512226 2.7611132,15.36851 3.0569109,15.070817 C 3.3598049,14.766003 3.5121904,14.433144 3.5121953,14.008194 C 3.5121904,13.569486 3.3592556,13.244423 3.0569109,12.94557 C 2.7595576,12.640896 2.4384971,12.487838 2.0162604,12.487825 z" />
  <path
     style="font-size:13.58991337px;font-style:normal;font-variant:normal;font-weight:bold;font-stretch:normal;text-align:start;line-height:125%;writing-mode:lr-tb;text-anchor:start;opacity:0.4;fill:none;fill-opacity:1;fill-rule:nonzero;stroke:url(#linearGradient2428);stroke-width:0.97560972;stroke-linecap:round;stroke-linejoin:round;marker:none;marker-start:none;marker-mid:none;marker-end:none;stroke-miterlimit:4;stroke-dasharray:none;stroke-dashoffset:0;stroke-opacity:1;visibility:visible;display:inline;overflow:visible;enable-background:accumulate;font-family:Bitstream Vera Serif"
     id="path3383"
     d="M 1.46875,1.5625 C 1.46875,1.8032164 1.46875,2.0410778 1.46875,2.28125 C 5.8567822,2.6501041 9.9611637,5.2009193 12.09375,9.0625 C 13.036462,10.732928 13.547689,12.620371 13.71875,14.53125 C 13.947927,14.53125 14.177061,14.53125 14.40625,14.53125 C 14.078736,10.557589 12.019462,6.7157078 8.8125,4.34375 C 6.7045341,2.7576191 4.0987533,1.7884383 1.46875,1.5625 z" />
  <path
     style="font-size:13.58991337px;font-style:normal;font-variant:normal;font-weight:bold;font-stretch:normal;text-align:start;line-height:125%;writing-mode:lr-tb;text-anchor:start;opacity:0.4;fill:none;fill-opacity:1;fill-rule:nonzero;stroke:url(#linearGradient2425);stroke-width:0.97560972;stroke-linecap:round;stroke-linejoin:round;marker:none;marker-start:none;marker-mid:none;marker-end:none;stroke-miterlimit:4;stroke-dasharray:none;stroke-dashoffset:0;stroke-opacity:1;visibility:visible;display:inline;overflow:visible;enable-background:accumulate;font-family:Bitstream Vera Serif"
     id="path3387"
     d="M 1.5245965,7.7220768 C 1.5245965,7.846925 1.5245965,7.9721579 1.5245965,8.0970768 C 4.5091117,8.5565257 7.0842249,10.833798 7.8058465,13.784577 C 7.8137542,13.816912 7.829635,13.84584 7.8370965,13.878327 C 7.9262049,14.171322 7.9257085,14.35972 7.9308465,14.503327 C 8.0639629,14.503327 8.2006031,14.503327 8.3370965,14.503327 C 7.9334159,11.794445 6.0859475,9.2858834 3.5558465,8.2220768 C 2.9053899,7.9402458 2.2186259,7.8310256 1.5245965,7.7220768 z" />
  <path
     style="font-size:13.58991337px;font-style:normal;font-variant:normal;font-weight:bold;font-stretch:normal;text-align:start;line-height:125%;writing-mode:lr-tb;text-anchor:start;opacity:0.4;fill:none;fill-opacity:1;fill-rule:nonzero;stroke:url(#linearGradient2422);stroke-width:0.97560972;stroke-linecap:round;stroke-linejoin:round;marker:none;marker-start:none;marker-mid:none;marker-end:none;stroke-miterlimit:4;stroke-dasharray:none;stroke-dashoffset:0;stroke-opacity:1;visibility:visible;display:inline;overflow:visible;enable-background:accumulate;font-family:Bitstream Vera Serif"
     id="path3219"
     d="M 2.0105722,13.488269 C 1.6345131,13.47102 1.3313789,13.961422 1.5759672,14.278813 C 1.7602692,14.5821 2.2458381,14.596491 2.4275366,14.282733 C 2.6573434,13.96186 2.3862371,13.489899 2.0105722,13.488269 z" />
  <path
     style="opacity:0.2;fill:url(#linearGradient2419);fill-opacity:1;fill-rule:evenodd;stroke:none;stroke-width:1;stroke-linecap:butt;stroke-linejoin:miter;marker:none;marker-start:none;marker-mid:none;marker-end:none;stroke-miterlimit:4;stroke-dasharray:none;stroke-dashoffset:0;stroke-opacity:1;visibility:visible;display:inline;overflow:visible;enable-background:accumulate"
     id="path3379"
     d="M 0.46875,0 C 0.34024134,0.0056042331 0.20432918,0.087303897 0.125,0.1875 C 0.045670822,0.2876961 -0.0022666774,0.39160696 0,0.5 L 0,3.125 C -0.0003866159,3.1441704 -0.011441999,3.1817436 0,3.25 C 0.011441999,3.3182564 0.065890534,3.4096412 0.125,3.46875 C 0.24321522,3.5869639 0.33543123,3.6283206 0.5,3.625 C 4.4776057,3.6991208 7.9367177,5.6915027 10.09375,8.71875 C 10.1582,8.80603 10.229588,8.8378433 10.3125,8.875 C 10.395412,8.9121567 10.494519,8.9662971 10.625,8.9375 L 13.46875,8.4375 C 13.575556,8.4119942 13.748067,8.3044457 13.8125,8.15625 C 13.873522,8.0158954 13.88688,7.8736388 13.78125,7.6875 C 11.071733,3.1352401 6.1538784,0.086141929 0.5,0 C 0.45843906,-0.0013256917 0.51031094,-0.0013256917 0.46875,0 z M 0.46875,6.0625 C 0.34023985,6.0681041 0.20432859,6.1498041 0.125,6.25 C 0.045671407,6.3501959 -0.0022667066,6.4541068 0,6.5625 L 0,8.9375 C -0.0022802482,9.0465411 0.027753835,9.1472033 0.09375,9.25 C 0.15974616,9.3527967 0.30929956,9.4617964 0.46875,9.46875 C 1.4006518,9.5011771 2.2765701,9.7334562 3.0625,10.125 C 3.2188489,10.195903 3.3205819,10.168787 3.375,10.15625 L 6.6875,9.59375 C 6.8581635,9.5550446 6.990011,9.3840271 7.03125,9.25 C 7.0745237,9.1093601 7.0790806,8.9017464 6.9375,8.75 C 5.2606203,7.1555345 2.9896444,6.1263008 0.5,6.0625 C 0.45836746,6.0611698 0.51030373,6.0611744 0.46875,6.0625 z" />
</svg>

<?xml version="1.0" encoding="UTF-8" standalone="no"?>
<!-- Created with Inkscape (http://www.inkscape.org/) -->
<svg id="svg3401" xmlns:rdf="http://www.w3.org/1999/02/22-rdf-syntax-ns#" xmlns="http://www.w3.org/2000/svg" height="16" width="16" version="1.0" xmlns:cc="http://creativecommons.org/ns#" xmlns:xlink="http://www.w3.org/1999/xlink" xmlns:dc="http://purl.org/dc/elements/1.1/">
 <metadata id="metadata35">
  <rdf:RDF>
   <cc:Work rdf:about="">
    <dc:format>image/svg+xml</dc:format>
    <dc:type rdf:resource="http://purl.org/dc/dcmitype/StillImage"/>
   </cc:Work>
  </rdf:RDF>
 </metadata>
 <defs id="defs3403">
  <linearGradient id="linearGradient3308-4-6">
   <stop id="stop3310-1-4" style="stop-color:#fff" offset="0"/>
   <stop id="stop3312-5-3" style="stop-color:#fff;stop-opacity:0" offset="1"/>
  </linearGradient>
  <linearGradient id="linearGradient2419" y2="24.628" gradientUnits="userSpaceOnUse" x2="20.055" gradientTransform="matrix(.36876 0 0 .39204 .45453 .56183)" y1="15.298" x1="16.626">
   <stop id="stop2687-1-9" style="stop-color:#fff" offset="0"/>
   <stop id="stop2689-5-4" style="stop-color:#fff;stop-opacity:0" offset="1"/>
  </linearGradient>
  <linearGradient id="linearGradient2422" y2="42.995" xlink:href="#linearGradient3308-4-6" gradientUnits="userSpaceOnUse" x2="9.65" gradientTransform="matrix(.17461 0 0 .17663 .58285 6.9181)" y1="36.845" x1="9.65"/>
  <linearGradient id="linearGradient2425" y2="44.109" xlink:href="#linearGradient3308-4-6" gradientUnits="userSpaceOnUse" x2="15.8" gradientTransform="matrix(.37561 0 0 .37561 -.95878 -1.0548)" y1="20.445" x1="15.8"/>
  <linearGradient id="linearGradient2428" y2="44.02" xlink:href="#linearGradient3308-4-6" gradientUnits="userSpaceOnUse" x2="30.15" gradientTransform="matrix(.37561 0 0 .37561 -1.0146 -1.0269)" y1="5.0701" x1="30.15"/>
  <radialGradient id="radialGradient2441" gradientUnits="userSpaceOnUse" cy="10.291" cx="12.011" gradientTransform="matrix(2.2636e-8 .77384 -1.1163 0 17.811 -5.3314)" r="20">
   <stop id="stop3841" style="stop-color:#ffed8c" offset="0"/>
   <stop id="stop3843" style="stop-color:#fb9858" offset=".26238"/>
   <stop id="stop3845" style="stop-color:#dc572a" offset=".66094"/>
   <stop id="stop3847" style="stop-color:#9f3110" offset="1"/>
  </radialGradient>
  <linearGradient id="linearGradient2450" y2="3.899" gradientUnits="userSpaceOnUse" x2="24" gradientTransform="matrix(.37561 0 0 .37561 -1.0146 -1.0269)" y1="56.763" x1="24">
   <stop id="stop3686" style="stop-color:#861318" offset="0"/>
   <stop id="stop3688" style="stop-color:#f67e2a" offset="1"/>
  </linearGradient>
 </defs>
 <path id="path3395" style="stroke-linejoin:round;stroke:url(#linearGradient2450);stroke-linecap:round;stroke-width:.97561;fill:url(#radialGradient2441)" d="m0.48782 0.48781v2.6422c6.7719 0.1262 12.242 5.6038 12.366 12.382h2.658c-0.125-8.2449-6.7868-14.899-15.024-15.024zm0 6.0817v2.3764c3.5744 0.1243 6.4418 2.9891 6.5663 6.5661h2.3764c-0.1255-4.896-4.0507-8.8171-8.9427-8.9425zm1.5285 5.9185c-0.436 0-0.7713 0.154-1.0732 0.458-0.30236 0.298-0.4553 0.623-0.4553 1.062 0 0.432 0.15401 0.765 0.45529 1.063 0.30041 0.297 0.63391 0.441 1.0732 0.441 0.4256 0 0.7448-0.143 1.0406-0.441 0.3029-0.305 0.4553-0.638 0.4553-1.063 0-0.439-0.1529-0.764-0.4553-1.062-0.2973-0.305-0.6184-0.458-1.0406-0.458z"/>
 <path id="path3383" style="stroke-linejoin:round;opacity:.4;stroke:url(#linearGradient2428);stroke-linecap:round;stroke-width:.97561;fill:none" d="m1.4688 1.5625v0.7187c4.388 0.3689 8.4924 2.9197 10.625 6.7813 0.942 1.6705 1.454 3.5575 1.625 5.4685h0.687c-0.327-3.973-2.387-7.8153-5.5935-10.187-2.108-1.5864-4.7137-2.5556-7.3437-2.7815z"/>
 <path id="path3387" style="stroke-linejoin:round;opacity:.4;stroke:url(#linearGradient2425);stroke-linecap:round;stroke-width:.97561;fill:none" d="m1.5246 7.7221v0.375c2.9845 0.4594 5.5596 2.7369 6.2812 5.6879 0.008 0.032 0.0238 0.061 0.0313 0.093 0.0891 0.293 0.0886 0.482 0.0937 0.625h0.4063c-0.4037-2.709-2.2512-5.2171-4.7813-6.2809-0.6504-0.2819-1.3372-0.3911-2.0312-0.5z"/>
 <path id="path3219" style="stroke-linejoin:round;opacity:.4;stroke:url(#linearGradient2422);stroke-linecap:round;stroke-width:.97561;fill:none" d="m2.0106 13.488c-0.3761-0.017-0.6792 0.473-0.4346 0.791 0.1843 0.303 0.6698 0.317 0.8515 0.004 0.2298-0.321-0.0413-0.793-0.4169-0.795z"/>
 <path id="path3379" style="opacity:.2;fill-rule:evenodd;fill:url(#linearGradient2419)" d="m0.46875 0c-0.12851 0.0056042-0.26442 0.087304-0.34375 0.1875-0.079329 0.1002-0.12727 0.20411-0.125 0.3125v2.625c-0.00038662 0.0192-0.011442 0.0567 0 0.125s0.065891 0.1596 0.125 0.2188c0.11822 0.1182 0.21043 0.1595 0.375 0.1562 3.9776 0.0741 7.4367 2.0665 9.594 5.0938 0.064 0.0872 0.136 0.119 0.218 0.1562 0.083 0.0372 0.183 0.0913 0.313 0.0625l2.844-0.5c0.107-0.0255 0.279-0.1331 0.343-0.2813 0.062-0.1403 0.075-0.2826-0.031-0.4687-2.709-4.5523-7.6271-7.6014-13.281-7.6875-0.04156-0.0013257 0.01031-0.0013257-0.03125 0zm0 6.0625c-0.12851 0.0056-0.26442 0.0873-0.34375 0.1875-0.079329 0.1002-0.12727 0.2041-0.125 0.3125v2.375c-0.0022802 0.109 0.027754 0.2097 0.09375 0.3125 0.066 0.1028 0.21555 0.2118 0.375 0.2188 0.93195 0.0324 1.8078 0.2647 2.5938 0.6562 0.1562 0.071 0.258 0.044 0.3124 0.031l3.3125-0.5622c0.1707-0.0388 0.3025-0.2098 0.3437-0.3438 0.0433-0.1406 0.0479-0.3483-0.0937-0.5-1.6769-1.5945-3.9479-2.6237-6.4375-2.6875-0.04163-0.0013 0.0103-0.0013-0.03125 0z"/>
</svg>
